svg/fluentui-system-icons/ic_fluent_remote_16_filled.svg

<svg width="16" height="16" viewBox="0 0 16 16" fill="none" xmlns="http://www.w3.org/2000/svg">
<path d="M13.7961 3.26403C14.08 2.9624 14.0657 2.48774 13.764 2.20385C13.4624 1.91996 12.9877 1.93435 12.7038 2.23598L8.70385 6.48598C8.43205 6.77476 8.43205 7.22524 8.70385 7.51402L12.7038 11.764C12.9877 12.0657 13.4624 12.08 13.764 11.7961C14.0657 11.5123 14.08 11.0376 13.7961 10.736L10.2799 7L13.7961 3.26403ZM3.29615 4.23598C3.01226 3.93435 2.53761 3.91996 2.23598 4.20385C1.93435 4.48774 1.91996 4.96239 2.20385 5.26402L5.72006 9L2.20385 12.736C1.91996 13.0376 1.93435 13.5123 2.23598 13.7961C2.53761 14.08 3.01226 14.0657 3.29615 13.764L7.29615 9.51402C7.56795 9.22524 7.56795 8.77476 7.29615 8.48598L3.29615 4.23598Z" fill="#212121"/>
</svg>

<svg xmlns="http://www.w3.org/2000/svg" width="16" height="16"><path d="M13.796 3.264a.75.75 0 1 0-1.092-1.028l-4 4.25a.75.75 0 0 0 0 1.028l4 4.25a.75.75 0 1 0 1.092-1.028L10.28 7l3.516-3.736Zm-10.5.972a.75.75 0 1 0-1.092 1.028L5.72 9l-3.516 3.736a.75.75 0 1 0 1.092 1.028l4-4.25a.75.75 0 0 0 0-1.028l-4-4.25Z"/></svg>
